X: 593
T: Achonry Lasses, The
R: reel
M: 4/4
K: Gmajor
G3B AF F2|dBcA BGAF|GBAF DEFA|dBcA BGAF|
G3B AF F2|d2 cA BGAF|G2 AF DEFA|dBcA BG G2||
g3e fddf|eccB cdef|g2 ag fddf|ecAc BG G2|
gbag fddf|eccB cdef|g2 ag fage|cedc (3Bcd AF||

